source_images/ic_set/ic_set_unknown.svg

<?xml version="1.0" standalone="no"?>
<!DOCTYPE svg PUBLIC "-//W3C//DTD SVG 1.1//EN" "http://www.w3.org/Graphics/SVG/1.1/DTD/svg11.dtd">
<svg xmlns:xlink="http://www.w3.org/1999/xlink" xmlns="http://www.w3.org/2000/svg" version="1.1" width="18px" height="18px" viewBox="0 0 18 18">
  <g fill="#000000" stroke="none">
    <path d="M 8.91,0 C 8.13,0 7.38,0.11 6.72,0.3 6.05,0.49 5.41,0.8 4.87,1.19 4.41,1.53 3.96,1.96 3.62,2.41 3.02,3.21 2.69,4.08 2.61,5.09 2.6,5.16 2.6,5.21 2.6,5.22 c 0,0 3.11,0.39 3.13,0.39 0.01,0 0.02,-0.03 0.04,-0.13 C 6.05,4.32 6.56,3.54 7.34,3.07 7.96,2.7 8.75,2.55 9.6,2.64 c 0.39,0.04 0.75,0.14 1.06,0.29 0.39,0.19 0.74,0.48 0.99,0.83 0.22,0.31 0.35,0.66 0.39,1.05 0.01,0.11 0.01,0.36 0,0.46 -0.03,0.26 -0.1,0.48 -0.21,0.71 -0.12,0.23 -0.21,0.36 -0.4,0.55 C 11.14,6.83 10.69,7.22 9.89,7.88 9.37,8.3 9.02,8.62 8.73,8.93 8.02,9.67 7.7,10.23 7.5,11.04 c -0.13,0.53 -0.18,1.08 -0.17,1.89 0,0.2 0.01,0.39 0.01,0.43 l 0,0.06 3.1,0 0,-0.34 c 0,-0.47 0.03,-0.77 0.08,-1.06 0.08,-0.47 0.2,-0.72 0.56,-1.12 0.23,-0.26 0.53,-0.54 0.99,-0.93 0.68,-0.57 1.16,-1 1.61,-1.45 0.7,-0.7 1.07,-1.18 1.33,-1.75 0.2,-0.44 0.32,-0.88 0.35,-1.37 0.01,-0.12 0.01,-0.43 0,-0.57 C 15.32,3.81 14.94,2.92 14.21,2.09 14.1,1.96 13.82,1.68 13.68,1.56 12.97,0.93 12.15,0.51 11.16,0.26 10.56,0.1 9.99,0.03 9.25,0.01 9.14,0.01 9.02,0 8.91,0.01 Z" />
    <path d="m 7.35,18 3.15,0 0,-3.15 -3.15,0 z" />
  </g>
</svg>

<svg xmlns="http://www.w3.org/2000/svg" version="1.1" width="18px" height="18px" viewBox="0 0 18 18"><path d="M8.91 0C8.13 0 7.38 0.11 6.72 0.3 6.05 0.49 5.41 0.8 4.87 1.19 4.41 1.53 3.96 1.96 3.62 2.41 3.02 3.21 2.69 4.08 2.61 5.09 2.6 5.16 2.6 5.21 2.6 5.22C2.6 5.22 5.71 5.61 5.73 5.61 5.74 5.61 5.75 5.58 5.77 5.48C6.05 4.32 6.56 3.54 7.34 3.07 7.96 2.7 8.75 2.55 9.6 2.64C9.99 2.68 10.35 2.78 10.66 2.93 11.05 3.12 11.4 3.41 11.65 3.76 11.87 4.07 12 4.42 12.04 4.81 12.05 4.92 12.05 5.17 12.04 5.27 12.01 5.53 11.94 5.75 11.83 5.98 11.71 6.21 11.62 6.34 11.43 6.53C11.14 6.83 10.69 7.22 9.89 7.88 9.37 8.3 9.02 8.62 8.73 8.93 8.02 9.67 7.7 10.23 7.5 11.04C7.37 11.57 7.32 12.12 7.33 12.93 7.33 13.13 7.34 13.32 7.34 13.36L7.34 13.42 10.44 13.42 10.44 13.08C10.44 12.61 10.47 12.31 10.52 12.02 10.6 11.55 10.72 11.3 11.08 10.9 11.31 10.64 11.61 10.36 12.07 9.97 12.75 9.4 13.23 8.97 13.68 8.52 14.38 7.82 14.75 7.34 15.01 6.77 15.21 6.33 15.33 5.89 15.36 5.4 15.37 5.28 15.37 4.97 15.36 4.83C15.32 3.81 14.94 2.92 14.21 2.09 14.1 1.96 13.82 1.68 13.68 1.56 12.97 0.93 12.15 0.51 11.16 0.26 10.56 0.1 9.99 0.03 9.25 0.01 9.14 0.01 9.02 0 8.91 0.01z" fill="#000"/><path d="M7.35 18 l 3.15 0 0 -3.15 -3.15 0z" fill="#000"/></svg>
